X:1
T:Polka : The rakes of mallow
R:polka
C:Trad.
S:
A:Irlande
L:1/8
M:2/4
K:C
GB GB | GB c/B/A/G/ | FA FA | FA d/c/B/A/ |
GB GB | GB d2 | c/B/A/G/ F/G/A/c/ | BG G2 ::
gf/e/ dc | Bc d2 | gf/e/ dc | Bc A2 |
gf/e/ dc | Bc d2 | c/B/A/G/ F/G/A/c/ | BG G2 :|
